X: 2332
T: Polska ur Jonas Pehrssons notbok (nr 28)
S: efter Jonas Pehrsson
R: Polska
B: http://www.smus.se/earkiv/fmk/browselarge.php?lang=sw&katalogid=Ma+3b&bildnr=00033
M: 3/4
O: Närke
L: 1/16
Z: Nils L
K: G
d2ef g2f2 g2e2 | fgaf d4 c4 | B2AB c2B2 A2G2 | ABAG FGFE D4 |
d2ef g2f2 g2e2 | f2af d4 c4 | B2cd c2B2 A2G2 | AcBA {A}G8 ::
G2B2 B2AB A2G2 | D2c2 c2Bc B2A2 | B2d2 d2cd c2B2 | c2e2 e2de d2^c2 |
d2ef g2f2 g2e2 | fgaf d4 c4 | B2cd c2B2 A2G2 | DcBA {A}G8 :|
(:musicend:)
(:music:)
